src/assets/img/hamburger.svg

<svg version="1.2" baseProfile="tiny-ps" xmlns="http://www.w3.org/2000/svg" width="14" height="13"><style></style><path id="Rectangle 12" d="M2.5 0h10c.83 0 1.5.67 1.5 1.5S13.33 3 12.5 3h-10C1.67 3 1 2.33 1 1.5S1.67 0 2.5 0Zm0 5h10c.83 0 1.5.67 1.5 1.5S13.33 8 12.5 8h-10C1.67 8 1 7.33 1 6.5S1.67 5 2.5 5Zm0 5h10c.83 0 1.5.67 1.5 1.5s-.67 1.5-1.5 1.5h-10c-.83 0-1.5-.67-1.5-1.5S1.67 10 2.5 10Z" style="fill:#6c7a8d"/></svg>

<svg version="1.2" baseProfile="tiny-ps" xmlns="http://www.w3.org/2000/svg" viewBox="0 0 14 13" width="14" height="13">
	<title>Rectangle 12</title>
	<style>
		tspan { white-space:pre }
		.shp0 { fill: #6c7a8d } 
	</style>
	<path id="Rectangle 12" class="shp0" d="M2.5 0L12.5 0C13.33 0 14 0.67 14 1.5C14 2.33 13.33 3 12.5 3L2.5 3C1.67 3 1 2.33 1 1.5C1 0.67 1.67 0 2.5 0ZM2.5 5L12.5 5C13.33 5 14 5.67 14 6.5C14 7.33 13.33 8 12.5 8L2.5 8C1.67 8 1 7.33 1 6.5C1 5.67 1.67 5 2.5 5ZM2.5 10L12.5 10C13.33 10 14 10.67 14 11.5C14 12.33 13.33 13 12.5 13L2.5 13C1.67 13 1 12.33 1 11.5C1 10.67 1.67 10 2.5 10Z" />
</svg>
